front/public/static/landing/logos/gray/gitguardian.svg

<svg fill="none" height="300" viewBox="0 0 600 300" width="600" xmlns="http://www.w3.org/2000/svg" xmlns:xlink="http://www.w3.org/1999/xlink"><mask id="a" height="112" maskUnits="userSpaceOnUse" width="462" x="69" y="94"><path d="m531 94h-462v112h462z" fill="#fff"/></mask><g fill="#364153" mask="url(#a)"><path d="m196.106 174.576c5.005 0 9.598-1.305 13.643-3.778v-18.754h-7.747v14.151c-1.851.687-3.633.893-5.621.893-6.925 0-10.764-4.327-10.764-15.662 0-10.992 3.771-15.251 10.764-15.251 3.085 0 6.238.893 9.118 2.542l3.427-6.732c-3.907-2.336-8.021-3.298-12.683-3.298-12.066 0-19.196 7.9-19.196 22.739 0 15.868 7.062 23.15 19.059 23.15z"/><path d="m222.777 135.007c3.085 0 4.731-1.992 4.731-4.602 0-2.542-1.646-4.672-4.731-4.672-3.016 0-4.73 2.13-4.73 4.672 0 2.61 1.714 4.602 4.73 4.602zm4.045 4.603h-8.09v34.279h8.09z"/><path d="m258.05 139.61h-10.284v-8.587h-5.896l-1.646 8.587-6.513.962v5.839h6.102v16.693c0 7.763 4.182 11.472 11.038 11.472 3.085 0 6.102-.824 8.706-2.267l-2.261-6.389c-1.99.962-3.703 1.374-5.348 1.374-2.811 0-4.182-1.168-4.182-4.533v-16.35h10.284z"/><path d="m283.746 174.576c5.004 0 9.598-1.305 13.642-3.778v-18.754h-7.746v14.151c-1.851.687-3.634.893-5.622.893-6.924 0-10.763-4.327-10.763-15.662 0-10.992 3.77-15.251 10.763-15.251 3.085 0 6.239.893 9.119 2.542l3.428-6.732c-3.908-2.336-8.022-3.298-12.685-3.298-12.066 0-19.194 7.9-19.194 22.739 0 15.868 7.061 23.15 19.058 23.15z"/><path d="m306.098 139.61v23.425c0 7.488 3.704 11.541 10.216 11.541 3.359 0 6.375-1.099 10.488-4.809v4.122h7.817v-34.279h-8.09v24.318c-3.154 2.405-5.69 3.229-7.746 3.229-3.087 0-4.594-1.511-4.594-5.221v-22.326z"/><path d="m371.396 173.889v-22.189c0-9.068-4.594-12.777-12.89-12.777-4.182 0-9.05 1.237-13.984 3.641l2.468 6.389c4.387-1.993 7.61-2.817 10.283-2.817 4.456 0 6.239 1.718 6.239 6.114v1.992h-7.748c-8.5 0-12.409 4.534-12.409 10.167 0 6.183 4.388 10.167 10.353 10.167 3.839 0 7.062-1.236 10.009-4.465v3.778zm-15.494-5.701c-2.949 0-4.732-1.443-4.732-4.26 0-2.335 1.44-4.053 5.075-4.053h7.267v5.084c-2.742 2.335-5.006 3.229-7.61 3.229z"/><path d="m389.576 173.889v-23.975c3.566-2.335 7.063-3.091 11.588-3.091v-7.9c-4.114 0-7.541 1.099-11.861 5.221v-4.534h-7.815v34.279z"/><path d="m436.516 173.889v-46.576h-8.09v13.259c-2.331-1.099-4.661-1.649-7.198-1.649-8.227 0-14.74 5.152-14.74 17.93 0 13.052 5.69 17.723 12.888 17.723 3.428 0 6.445-1.236 9.393-4.396v3.709zm-14.808-6.526c-4.801 0-7.062-2.473-7.062-10.51 0-8.45 2.468-11.06 8.022-11.06 1.782 0 3.77.412 5.758 1.236v17.792c-2.331 1.924-4.594 2.542-6.718 2.542z"/><path d="m451.078 135.007c3.084 0 4.731-1.992 4.731-4.602 0-2.542-1.647-4.672-4.731-4.672-3.017 0-4.73 2.13-4.73 4.672 0 2.61 1.713 4.602 4.73 4.602zm4.046 4.603h-8.091v34.279h8.091z"/><path d="m491.974 173.889v-22.189c0-9.068-4.594-12.777-12.889-12.777-4.183 0-9.05 1.237-13.985 3.641l2.468 6.389c4.387-1.993 7.61-2.817 10.283-2.817 4.456 0 6.239 1.718 6.239 6.114v1.992h-7.748c-8.5 0-12.408 4.534-12.408 10.167 0 6.183 4.387 10.167 10.352 10.167 3.839 0 7.062-1.236 10.009-4.465v3.778zm-15.494-5.701c-2.949 0-4.732-1.443-4.732-4.26 0-2.335 1.441-4.053 5.075-4.053h7.267v5.084c-2.742 2.335-5.005 3.229-7.61 3.229z"/><path d="m510.155 173.889v-24.249c3.292-2.474 6.034-3.298 8.16-3.298 3.085 0 4.592 1.58 4.592 5.29v22.257h8.09v-23.425c0-7.488-3.701-11.541-10.214-11.541-3.428 0-6.651 1.099-10.902 4.877v-4.19h-7.815v34.279z"/><path d="m95.1797 128.075c0-2.553 1.6199-4.629 3.6114-4.629 1.9919 0 3.6109 2.076 3.6109 4.629 0 2.552-1.619 4.628-3.6109 4.628-1.9915 0-3.6114-2.076-3.6114-4.628z"/><path d="m116.761 134.187c-.12-1.835-1.351-3.068-3.063-3.068s-2.944 1.233-3.062 3.068c-.019.273-.027.553-.027.832 0 2.922.589 5.305 1.972 7.968l.052.102.002.004c.201.394.503.987 1.063.987.562 0 .864-.596 1.064-.991l.053-.102c1.383-2.663 1.972-5.046 1.972-7.968 0-.279-.008-.559-.026-.832z"/><path d="m133.276 127.352c-.476-1.51-1.874-2.674-3.48-2.896-2.242-.309-4.521 1.033-6.098 3.588-.474.765-.258 1.413.102 1.764.246.24.574.372.946.381.009.001.017.001.024.001.441 0 .85-.29 1.15-.503l.003-.002.136-.094c1.626-1.099 2.995-1.178 4.442-.26.8.508 1.628.558 2.213.132.605-.442.826-1.271.562-2.111z"/><path clip-rule="evenodd" d="m150.121 129.844-5.932-4.394c.605-5.82.108-17.232-10.282-26.498-2.176-1.9006-5.477-1.892-7.675.0181-3.472 3.0169-7.919 4.6779-12.524 4.6779s-9.052-1.661-12.523-4.6779c-2.1991-1.9111-5.5004-1.9177-7.6775-.0162-10.6891 9.5891-10.8442 20.9391-10.2688 26.4881l-5.9247 4.388c-2.9892 2.171-4.7749 5.673-4.7749 9.366v5.803c0 17.829 7.0067 35.235 18.2845 45.425 9.0833 8.206 16.3544 12.033 22.8884 12.044 6.527-.011 13.798-3.838 22.881-12.044 11.279-10.19 18.284-27.596 18.284-45.425v-5.803c0-3.693-1.784-7.195-4.756-9.352zm-9.061 47.914-.002.003c1.578-4.467 2.528-9.145 2.667-13.643.012-.381.018-.76.018-1.138m-2.683 14.778-.002.003c3.361-5.312 5.903-11.515 7.436-18.138 1.092-4.718 1.672-9.649 1.672-14.624v-5.804c0-2.228-1.034-4.255-2.836-5.564l-4.108-3.043c-.192.672-.413 1.352-.663 2.035-.186.51-.388 1.021-.606 1.531-.906 2.122-2.079 4.227-3.49 6.139-.335.453-.684.896-1.045 1.325 2.677 4.115 4.536 8.644 5.516 13.397.536 2.598.809 5.264.809 7.965m-18.218 30.243c-4.525 3.035-8.433 4.539-11.813 4.544-1.691-.002-3.516-.384-5.48-1.135 7.106-7.306 11.14-17.112 11.14-27.35 0-5.982-1.292-11.823-3.671-16.797 6.914-.418 13.333-3.021 18.407-7.472 3.291 5.408 5.026 11.574 5.026 17.966 0 10.989-5.822 23.862-13.609 30.244zm-48.2733-48.224v-5.803c0-2.228 1.0331-4.257 2.8542-5.579l4.1525-3.075c.6822 2.352 1.6413 4.609 2.8572 6.725.0976.17.1967.339.2975.507.6288 1.047 1.3216 2.058 2.0757 3.027l-10.711 18.166c-.9958-4.519-1.5261-9.223-1.5261-13.968zm36.4563-17.616c1.455 0 2.591-1.378 4.041-3.138.598-.725 1.25-1.515 1.999-2.301 4.621-4.911 10.527-6.14 14.819-4.436 3.669 1.456 5.429 4.816 4.942 9.099-.909 5.335-3.379 10.186-7.191 13.972-4.874 4.839-11.415 7.504-18.61 7.504s-13.7359-2.665-18.6094-7.504c-3.8134-3.786-6.2838-8.637-7.1914-13.972-.4873-4.283 1.2735-7.643 4.9414-9.099 4.2943-1.704 10.1994-.475 14.8194 4.436.75.786 1.402 1.577 2 2.302 1.449 1.76 2.584 3.137 4.04 3.137z" fill-rule="evenodd"/></g></svg>

<svg width="600" height="300" viewBox="0 0 600 300" fill="none" xmlns="http://www.w3.org/2000/svg">
<mask id="mask0_1904_3398" style="mask-type:luminance" maskUnits="userSpaceOnUse" x="69" y="94" width="462" height="112">
<path d="M531 94H69V206H531V94Z" fill="white"/>
</mask>
<g mask="url(#mask0_1904_3398)">
<path d="M196.106 174.576C201.111 174.576 205.704 173.271 209.749 170.798V152.044H202.002V166.195C200.151 166.882 198.369 167.088 196.381 167.088C189.456 167.088 185.617 162.761 185.617 151.426C185.617 140.434 189.388 136.175 196.381 136.175C199.466 136.175 202.619 137.068 205.499 138.717L208.926 131.985C205.019 129.649 200.905 128.687 196.243 128.687C184.177 128.687 177.047 136.587 177.047 151.426C177.047 167.294 184.109 174.576 196.106 174.576Z" fill="#364153"/>
<path d="M222.777 135.007C225.862 135.007 227.508 133.015 227.508 130.405C227.508 127.863 225.862 125.733 222.777 125.733C219.761 125.733 218.047 127.863 218.047 130.405C218.047 133.015 219.761 135.007 222.777 135.007ZM226.822 139.61H218.732V173.889H226.822V139.61Z" fill="#364153"/>
<path d="M258.05 139.61H247.766V131.023H241.87L240.224 139.61L233.711 140.572V146.411H239.813V163.104C239.813 170.867 243.995 174.576 250.851 174.576C253.936 174.576 256.953 173.752 259.557 172.309L257.296 165.92C255.306 166.882 253.593 167.294 251.948 167.294C249.137 167.294 247.766 166.126 247.766 162.761V146.411H258.05V139.61Z" fill="#364153"/>
<path d="M283.746 174.576C288.75 174.576 293.344 173.271 297.388 170.798V152.044H289.642V166.195C287.791 166.882 286.008 167.088 284.02 167.088C277.096 167.088 273.257 162.761 273.257 151.426C273.257 140.434 277.027 136.175 284.02 136.175C287.105 136.175 290.259 137.068 293.139 138.717L296.567 131.985C292.659 129.649 288.545 128.687 283.882 128.687C271.816 128.687 264.688 136.587 264.688 151.426C264.688 167.294 271.749 174.576 283.746 174.576Z" fill="#364153"/>
<path d="M306.098 139.61V163.035C306.098 170.523 309.802 174.576 316.314 174.576C319.673 174.576 322.689 173.477 326.802 169.767V173.889H334.619V139.61H326.529V163.928C323.375 166.333 320.839 167.157 318.783 167.157C315.696 167.157 314.189 165.646 314.189 161.936V139.61H306.098Z" fill="#364153"/>
<path d="M371.396 173.889V151.7C371.396 142.632 366.802 138.923 358.506 138.923C354.324 138.923 349.456 140.16 344.522 142.564L346.99 148.953C351.377 146.96 354.6 146.136 357.273 146.136C361.729 146.136 363.512 147.854 363.512 152.25V154.242H355.764C347.264 154.242 343.355 158.776 343.355 164.409C343.355 170.592 347.743 174.576 353.708 174.576C357.547 174.576 360.77 173.34 363.717 170.111V173.889H371.396ZM355.902 168.188C352.953 168.188 351.17 166.745 351.17 163.928C351.17 161.593 352.61 159.875 356.245 159.875H363.512V164.959C360.77 167.294 358.506 168.188 355.902 168.188Z" fill="#364153"/>
<path d="M389.576 173.889V149.914C393.142 147.579 396.639 146.823 401.164 146.823V138.923C397.05 138.923 393.623 140.022 389.303 144.144V139.61H381.488V173.889H389.576Z" fill="#364153"/>
<path d="M436.516 173.889V127.313H428.426V140.572C426.095 139.473 423.765 138.923 421.228 138.923C413.001 138.923 406.488 144.075 406.488 156.853C406.488 169.905 412.178 174.576 419.376 174.576C422.804 174.576 425.821 173.34 428.769 170.18V173.889H436.516ZM421.708 167.363C416.907 167.363 414.646 164.89 414.646 156.853C414.646 148.403 417.114 145.793 422.668 145.793C424.45 145.793 426.438 146.205 428.426 147.029V164.821C426.095 166.745 423.832 167.363 421.708 167.363Z" fill="#364153"/>
<path d="M451.078 135.007C454.162 135.007 455.809 133.015 455.809 130.405C455.809 127.863 454.162 125.733 451.078 125.733C448.061 125.733 446.348 127.863 446.348 130.405C446.348 133.015 448.061 135.007 451.078 135.007ZM455.124 139.61H447.033V173.889H455.124V139.61Z" fill="#364153"/>
<path d="M491.974 173.889V151.7C491.974 142.632 487.38 138.923 479.085 138.923C474.902 138.923 470.035 140.16 465.1 142.564L467.568 148.953C471.955 146.96 475.178 146.136 477.851 146.136C482.307 146.136 484.09 147.854 484.09 152.25V154.242H476.342C467.842 154.242 463.934 158.776 463.934 164.409C463.934 170.592 468.321 174.576 474.286 174.576C478.125 174.576 481.348 173.34 484.295 170.111V173.889H491.974ZM476.48 168.188C473.531 168.188 471.748 166.745 471.748 163.928C471.748 161.593 473.189 159.875 476.823 159.875H484.09V164.959C481.348 167.294 479.085 168.188 476.48 168.188Z" fill="#364153"/>
<path d="M510.155 173.889V149.64C513.447 147.166 516.189 146.342 518.315 146.342C521.4 146.342 522.907 147.922 522.907 151.632V173.889H530.997V150.464C530.997 142.976 527.296 138.923 520.783 138.923C517.355 138.923 514.132 140.022 509.881 143.8V139.61H502.066V173.889H510.155Z" fill="#364153"/>
<path d="M95.1797 128.075C95.1797 125.522 96.7996 123.446 98.7911 123.446C100.783 123.446 102.402 125.522 102.402 128.075C102.402 130.627 100.783 132.703 98.7911 132.703C96.7996 132.703 95.1797 130.627 95.1797 128.075Z" fill="#364153"/>
<path d="M116.761 134.187C116.641 132.352 115.41 131.119 113.698 131.119C111.986 131.119 110.754 132.352 110.636 134.187C110.617 134.46 110.609 134.74 110.609 135.019C110.609 137.941 111.198 140.324 112.581 142.987L112.633 143.089L112.635 143.093C112.836 143.487 113.138 144.08 113.698 144.08C114.26 144.08 114.562 143.484 114.762 143.089L114.815 142.987C116.198 140.324 116.787 137.941 116.787 135.019C116.787 134.74 116.779 134.46 116.761 134.187Z" fill="#364153"/>
<path d="M133.276 127.352C132.8 125.842 131.402 124.678 129.796 124.456C127.554 124.147 125.275 125.489 123.698 128.044C123.224 128.809 123.44 129.457 123.8 129.808C124.046 130.048 124.374 130.18 124.746 130.189C124.755 130.19 124.763 130.19 124.77 130.19C125.211 130.19 125.62 129.9 125.92 129.687L125.923 129.685L126.059 129.591C127.685 128.492 129.054 128.413 130.501 129.331C131.301 129.839 132.129 129.889 132.714 129.463C133.319 129.021 133.54 128.192 133.276 127.352Z" fill="#364153"/>
<path fill-rule="evenodd" clip-rule="evenodd" d="M150.121 129.844L144.189 125.45C144.794 119.63 144.297 108.218 133.907 98.952C131.731 97.0514 128.43 97.06 126.232 98.9701C122.76 101.987 118.313 103.648 113.708 103.648C109.103 103.648 104.656 101.987 101.185 98.9701C98.9859 97.059 95.6846 97.0524 93.5075 98.9539C82.8184 108.543 82.6633 119.893 83.2387 125.442L77.314 129.83C74.3248 132.001 72.5391 135.503 72.5391 139.196V144.999C72.5391 162.828 79.5458 180.234 90.8236 190.424C99.9069 198.63 107.178 202.457 113.712 202.468C120.239 202.457 127.51 198.63 136.593 190.424C147.872 180.234 154.877 162.828 154.877 144.999V139.196C154.877 135.503 153.093 132.001 150.121 129.844ZM141.06 177.758L141.058 177.761C142.636 173.294 143.586 168.616 143.725 164.118C143.737 163.737 143.743 163.358 143.743 162.98M141.06 177.758L141.058 177.761C144.419 172.449 146.961 166.246 148.494 159.623C149.586 154.905 150.166 149.974 150.166 144.999V139.195C150.166 136.967 149.132 134.94 147.33 133.631L143.222 130.588C143.03 131.26 142.809 131.94 142.559 132.623C142.373 133.133 142.171 133.644 141.953 134.154C141.047 136.276 139.874 138.381 138.463 140.293C138.128 140.746 137.779 141.189 137.418 141.618C140.095 145.733 141.954 150.262 142.934 155.015C143.47 157.613 143.743 160.279 143.743 162.98M125.525 193.223C121 196.258 117.092 197.762 113.712 197.767C112.021 197.765 110.196 197.383 108.232 196.632C115.338 189.326 119.372 179.52 119.372 169.282C119.372 163.3 118.08 157.459 115.701 152.485C122.615 152.067 129.034 149.464 134.108 145.013C137.399 150.421 139.134 156.587 139.134 162.979C139.134 173.968 133.312 186.841 125.525 193.223ZM77.2517 144.999V139.196C77.2517 136.968 78.2848 134.939 80.1059 133.617L84.2584 130.542C84.9406 132.894 85.8997 135.151 87.1156 137.267C87.2132 137.437 87.3123 137.606 87.4131 137.774C88.0419 138.821 88.7347 139.832 89.4888 140.801L78.7778 158.967C77.782 154.448 77.2517 149.744 77.2517 144.999ZM113.708 127.383C115.163 127.383 116.299 126.005 117.749 124.245C118.347 123.52 118.999 122.73 119.748 121.944C124.369 117.033 130.275 115.804 134.567 117.508C138.236 118.964 139.996 122.324 139.509 126.607C138.6 131.942 136.13 136.793 132.318 140.579C127.444 145.418 120.903 148.083 113.708 148.083C106.513 148.083 99.9721 145.418 95.0986 140.579C91.2852 136.793 88.8148 131.942 87.9072 126.607C87.4199 122.324 89.1807 118.964 92.8486 117.508C97.1429 115.804 103.048 117.033 107.668 121.944C108.418 122.73 109.07 123.521 109.668 124.246C111.117 126.006 112.252 127.383 113.708 127.383Z" fill="#364153"/>
</g>
</svg>
